findly-builder/apps/searchassist/src/assets/icons/landing/result-opt.svg

<svg width="35" height="35" viewBox="0 0 35 35" fill="none" xmlns="http://www.w3.org/2000/svg">
<path d="M4.375 16.0418L30.625 16.0418L30.625 18.9585L4.375 18.9585L4.375 16.0418ZM4.375 29.1668L30.625 29.1668L30.625 26.2502L4.375 26.2502L4.375 29.1668ZM4.375 8.75016L30.625 8.75016L30.625 5.8335L4.375 5.83349L4.375 8.75016Z" fill="#85B7FE"/>
<path d="M4.37484 26.2502L21.8748 26.2502L21.8748 29.1668L4.37483 29.1668L4.37484 26.2502ZM4.37484 8.75016L24.7915 8.75016L24.7915 5.8335L4.37484 5.8335L4.37484 8.75016ZM4.37484 18.9585L12.3957 18.9585L12.3957 16.0418L4.37484 16.0418L4.37484 18.9585Z" fill="#0D6EFD"/>
<path d="M20.4167 24.7917L22.6042 24.7917C22.9687 24.7917 23.3333 25.1562 23.3333 25.5208L23.3333 29.8958C23.3333 30.2604 22.9687 30.625 22.6042 30.625L20.4167 30.625C20.0521 30.625 19.6875 30.2604 19.6875 29.8958L19.6875 25.5208C19.6875 25.1562 20.0521 24.7917 20.4167 24.7917ZM22.6042 5.10417L22.6042 9.47917C22.6042 9.91667 22.9687 10.2083 23.3333 10.2083L25.5208 10.2083C25.9583 10.2083 26.25 9.91667 26.25 9.47917L26.25 5.10417C26.25 4.66667 25.9583 4.375 25.5208 4.375L23.3333 4.375C22.9688 4.375 22.6042 4.66667 22.6042 5.10417ZM10.2083 15.3125L10.2083 19.6875C10.2083 20.0521 10.5729 20.4167 10.9375 20.4167L13.125 20.4167C13.4896 20.4167 13.8542 20.0521 13.8542 19.6875L13.8542 15.3125C13.8542 14.9479 13.4896 14.5833 13.125 14.5833L10.9375 14.5833C10.5729 14.5833 10.2083 14.9479 10.2083 15.3125Z" fill="#07377F"/>
</svg>

<svg width="35" height="35" fill="none" xmlns="http://www.w3.org/2000/svg"><path d="M4.375 16.042h26.25v2.916H4.375v-2.916Zm0 13.125h26.25V26.25H4.375v2.917Zm0-20.417h26.25V5.833H4.375V8.75Z" fill="#85B7FE"/><path d="M4.375 26.25h17.5v2.917h-17.5V26.25Zm0-17.5H24.79V5.833H4.375V8.75Zm0 10.209h8.02v-2.917h-8.02v2.916Z" fill="#0D6EFD"/><path d="M20.417 24.792h2.187c.365 0 .73.364.73.729v4.375c0 .364-.365.729-.73.729h-2.187c-.365 0-.73-.365-.73-.73v-4.374c0-.365.365-.73.73-.73Zm2.187-19.688V9.48c0 .438.365.73.73.73h2.187c.437 0 .729-.292.729-.73V5.104c0-.437-.292-.729-.73-.729h-2.187a.73.73 0 0 0-.729.73ZM10.208 15.313v4.374c0 .365.365.73.73.73h2.187c.365 0 .73-.365.73-.73v-4.375c0-.364-.365-.729-.73-.729h-2.188c-.364 0-.729.365-.729.73Z" fill="#07377F"/></svg>
